X:138
T:Star of Logy Bay
C:Newfoundland
M:3/4
L:1/4
K:D
|F/E/ | "D"D2 F|"A"E2 A|c2 B| A (EF)|"Em"G2 E| "A"D2 C|"D"D3-|D2 A|
d2 f|"A"e c e|"G"d2 d|"A"c2 B|A2 E|F2 G|"D"A3-|A2 A|
d2 f|"A"ece|"G"d2 d|"A"c2 B|A2 E|F2 G|"D"A3-|A2 F/E/|
D2 F|"A"E2 A|(c2B)|A EF|"G"G2 E|"A"D2 C|"D"D3-|D3|]
